X:205
T:B205-  The hunt is up
S:(2nd/2)
Q:1/4=120
L:1/4
M:C|
K:C
c3/2G/2 E/2F/2G|c3/2G/2 E/2F/2G|AGFE|D2DC|\
CE/2D/2EF/2E/2|FB/2D/2DG|FED/2C/2D|C2C2|]

